X:1055
T: Master McDermott's
T: R\'il an Mh\'aistir Mhic Dhiarmada
S: B.Breathnach:"Ceol Rince na hEireann" IV/119
Z: B.Black
L: 1/8
M: 4/4
R: reel
K: D
FE|D2 (3FED ADFA|dffe dBBd|AFFE DFAF|BFAF E2 FE|
D2 (3FED ADFA|dffe dBBd|AF (3FFF dFAF|EGFE D2 :|
FA|dffe dfaf|g2 bg affe|dBBA FAde|fdgf e2 de|
faaf g2 bg|affe dBBd|AF (3FFF dFAF|EGFE D2 :|
